X: 1002
T: Buttermilk Mary
B:O'Neill's 1002
Z:Transcribed by Dan G. Petersen, dangp@post6.tele.dk
M:6/8
L:1/8
K:A
(A/B/)|cAE FEC|EAc ecA|def edc|cBB Bed|
cea ecA|daf ecA|dfd ced|cAA A2:|
(c/d/)|eaa agf|ecA Ace|fbb b2a|gee efg|
aba gag|fgf efg|aec Bed|cAA A2:|


